public/img/playButton.svg

<svg fill="none" height="79" viewBox="0 0 79 79" width="79" xmlns="http://www.w3.org/2000/svg"><path d="m39.5-.00024414c-10.4762 0-20.5229 4.16157414-27.9305 11.56944414-7.40792 7.4073-11.5695 17.4547-11.5695 27.9306 0 10.4758 4.16158 20.5229 11.5695 27.9305 7.4073 7.4079 17.4546 11.5695 27.9305 11.5695s20.5229-4.1616 27.9305-11.5695c7.4079-7.4073 11.5695-17.4547 11.5695-27.9305-.0121-10.4723-4.177-20.5131-11.5822-27.9179-7.405-7.40505-17.4447-11.5700121-27.9178-11.58214414zm12.9559 40.68474414c-.0397.0237-19.1729 12.261-19.5129 12.4743-.2512.1813-.551.2832-.8613.292-.3791.0006-.7428-.1504-1.0106-.4182-.2684-.2684-.4188-.6321-.4188-1.0112v-25.0428c0-.3792.1504-.7429.4188-1.0112.2678-.2678.6315-.4188 1.0106-.4183.3103.0088.6101.1108.8613.2921.3401.2132 19.4734 12.4506 19.5129 12.4743.3951.2645.6321.7092.6321 1.1847 0 .4756-.237.9203-.6321 1.1848z" fill="#fff"/></svg>

<svg width="79" height="79" viewBox="0 0 79 79" fill="none" xmlns="http://www.w3.org/2000/svg">
<path d="M39.5 -0.000244141C29.0238 -0.000244141 18.9771 4.16133 11.5695 11.5692C4.16158 18.9765 0 29.0239 0 39.4998C0 49.9756 4.16158 60.0227 11.5695 67.4303C18.9768 74.8382 29.0241 78.9998 39.5 78.9998C49.9759 78.9998 60.0229 74.8382 67.4305 67.4303C74.8384 60.023 79 49.9756 79 39.4998C78.9879 29.0275 74.823 18.9867 67.4178 11.5819C60.0128 4.17685 49.9731 0.0118879 39.5 -0.000244141ZM52.4559 40.6845C52.4162 40.7082 33.283 52.9455 32.943 53.1588C32.6918 53.3401 32.392 53.442 32.0817 53.4508C31.7026 53.4514 31.3389 53.3004 31.0711 53.0326C30.8027 52.7642 30.6523 52.4005 30.6523 52.0214V26.9786C30.6523 26.5994 30.8027 26.2357 31.0711 25.9674C31.3389 25.6996 31.7026 25.5486 32.0817 25.5491C32.392 25.5579 32.6918 25.6599 32.943 25.8412C33.2831 26.0544 52.4164 38.2918 52.4559 38.3155C52.851 38.58 53.088 39.0247 53.088 39.5002C53.088 39.9758 52.851 40.4205 52.4559 40.685V40.6845Z" fill="white"/>
</svg>
